rospo-icon-theme-classic-common/64x64/apps/distributor-logo-freebsd.svg

<svg height="64" viewBox="0 0 64 64" width="64" xmlns="http://www.w3.org/2000/svg"><path d="m12.951295 5.0447248c-2.341581.1944631-5.8533879 1.870701-7.4757971 4.4409512-2.0119892 3.188022-1.5449978 4.808663-1.4451644 6.339195.099834 1.530532.4014455 2.902608.882722 4.323777.7296419 2.154649 1.9327121 3.862784 2.9801636 5.741598-1.1075856 2.916563-1.8829038 5.946679-1.8904314 9.092818-.000008.0066-.000008.013 0 .0196-.0000016 14.263186 11.7341513 25.997338 25.9973373 25.997336 14.263188.000002 25.99734-11.73415 25.997338-25.997338v-.0118c-.005-3.150652-.782072-6.183511-1.890431-9.104538 1.047237-1.877554 2.250324-3.582381 2.980163-5.737692.481339-1.421211.782914-2.793214.882722-4.323695.09981-1.530549.565846-3.151791-1.445164-6.339263-1.07985-1.7103584-3.051928-3.2489615-4.894031-3.898036-1.83756-.6474733-3.398978-.6437969-4.679209-.5272896-.794162.0702434-1.576088.2087298-2.355227.4023024-3.530482.853386-6.630682 2.4994992-9.760718 4.4761042-1.611289-.313919-3.163148-.929039-4.812007-.933498-.0092-.000016-.0182-.000016-.02734 0-1.657037.001-3.219737.61596-4.839353.929592-3.127482-1.974355-6.225205-3.6194907-9.752904-4.4721982-.78143-.1941389-1.56606-.3322646-2.36304-.4023024-.662462-.0597327-1.354219-.0766981-2.089629-.0156236z" opacity=".2"/><path d="m12.951295 4.0449976c-2.341581.1944631-5.8533879 1.870701-7.4757971 4.4409516-2.0119892 3.1880208-1.5449978 4.8086628-1.4451644 6.3391948.099833 1.530532.4014455 2.902608.882722 4.323776.7296419 2.15465 1.9327121 3.862785 2.9801636 5.741598-1.1075856 2.916564-1.8829038 5.946679-1.8904314 9.092819-.000008.0066-.000008.013 0 .0196-.0000016 14.263187 11.7341513 25.99734 25.9973373 25.997338 14.263188.000002 25.99734-11.734151 25.997338-25.997338v-.01187c-.005-3.150651-.782072-6.18351-1.890431-9.104537 1.047237-1.877554 2.250324-3.582381 2.980163-5.737693.481339-1.42121.782914-2.793214.882722-4.323694.09981-1.530481.565846-3.151723-1.445164-6.3391948-1.07985-1.7103598-3.051928-3.2489629-4.894031-3.8980374-1.83756-.6474733-3.398978-.6437969-4.679209-.5272896-.794162.0702434-1.576088.2087298-2.355227.4023024-3.530482.853386-6.630682 2.4994992-9.760718 4.4761042-1.611289-.3139187-3.163148-.9290391-4.812007-.9334982-.0092-.0000156-.0182-.0000156-.02734 0-1.657037.00105-3.219737.6159603-4.839353.9295924-3.127482-1.9743552-6.225205-3.6194909-9.752904-4.4721984-.78143-.1941389-1.56606-.3322646-2.36304-.4023024-.662462-.0597327-1.354219-.0766981-2.089629-.0156236z" fill="#fb5140"/><path d="m13.611383 13.016565c-.648668.05387-1.09364.29888-1.370953.738205-.395298.626355-.290972 2.230366.249974 3.827733.537609 1.587573 1.821875 4.095364 3.023128 6.132185 1.984411-2.887944 4.712615-5.216441 7.897629-6.741497-2.834328-1.789313-5.881684-3.256329-7.897629-3.741805-.439514-.111106-.832617-.176777-1.183472-.20701-.263147-.02409-.502454-.02577-.718677-.0078zm36.777483 0c-.216214-.01796-.455531-.01628-.718674.0078-.350782.03023-.743968.0959-1.183473.20701-2.234659.538142-5.751887 2.257837-8.823317 4.315957-1.563201 1.047426-1.664359 1.184303-1.663891 2.245863.00037.7587.06227 1.010203.445266 1.804503 1.060056 2.198251 3.429235 4.444239 5.456473 5.171345.899328.322741 2.050135.312158 2.476309-.02344 1.070214-.83912 4.214506-6.452801 5.132286-9.163125.540945-1.597291.645196-3.201302.249975-3.827733-.27737-.439321-.722308-.684331-1.370954-.738201zm-18.388741 3.987873a17.998155 17.998155 0 0 0 -17.998157 17.998156 17.998155 17.998155 0 0 0 17.998157 17.998157 17.998155 17.998155 0 0 0 17.998157-17.998157 17.998155 17.998155 0 0 0 -1.632645-7.440644c-.208746.255322-.428368.501135-.749923.753829-.893334.703428-1.584058.68123-2.281016.68743-.696959.0062-1.398055-.09633-2.10916-.351526-2.793096-1.001796-5.246435-3.418622-6.581356-6.186867-.418499-.867951-.644044-1.806201-.644466-2.671602-.000246-.560495.08732-1.447712.562442-2.179464a17.998155 17.998155 0 0 0 -4.562033-.609312z" opacity=".2"/><path d="m13.611383 12.016838c-.648668.05387-1.09364.29888-1.370953.738205-.395298.626355-.290972 2.230366.249974 3.827733.537609 1.587572 1.821875 4.095364 3.023128 6.132185 1.984411-2.887945 4.712615-5.216442 7.897629-6.741497-2.834328-1.789314-5.881684-3.256329-7.897629-3.741805-.439514-.111106-.832617-.176777-1.183472-.20701-.263147-.02409-.502454-.02577-.718677-.0078zm36.777483 0c-.216214-.01796-.455531-.01628-.718674.0078-.350782.03023-.743968.0959-1.183473.20701-2.234659.538142-5.751887 2.257837-8.823317 4.315957-1.563201 1.047426-1.664359 1.184303-1.663891 2.245863.00037.758701.06227 1.010203.445266 1.804503 1.060056 2.198251 3.429235 4.444239 5.456473 5.171344.899328.322741 2.050135.312158 2.476309-.02344 1.070214-.83912 4.214506-6.452801 5.132286-9.163125.540945-1.597287.645196-3.201299.249975-3.827729-.27737-.439325-.722308-.684335-1.370954-.738205zm-18.388741 3.987872a17.998155 17.998155 0 0 0 -17.998157 17.998157 17.998155 17.998155 0 0 0 17.998157 17.998157 17.998155 17.998155 0 0 0 17.998157-17.998157 17.998155 17.998155 0 0 0 -1.632645-7.440644c-.208746.255322-.428368.501135-.749923.753829-.893334.703428-1.584058.68123-2.281016.68743-.696959.0062-1.398055-.09634-2.10916-.351526-2.793096-1.001796-5.246435-3.418622-6.581356-6.186867-.418499-.867951-.644044-1.806201-.644466-2.671602-.000246-.560495.08732-1.447712.562442-2.179464a17.998155 17.998155 0 0 0 -4.562033-.609313z" fill="#fff"/><path d="m49.964844 4.0019531c-.355128.0066118-.693614.029467-1.013672.0585938-.794162.0702434-1.57633.2087711-2.355469.4023437-3.530482.853386-6.62973 2.4999575-9.759765 4.4765625-1.611289-.3139187-3.163641-.9291346-4.8125-.9335937-.0092-.0000156-.018204-.0000156-.027344 0-1.657037.00105-3.220228.6160554-4.839844.9296875-3.127482-1.9743552-6.224254-3.6199488-9.751953-4.4726563-.78143-.1941389-1.566301-.3323059-2.363281-.4023437-.662462-.0597327-1.354434-.0766995-2.089844-.015625-2.341581.1944631-5.8541534 1.8711556-7.4765626 4.4414062-1.5247386 2.4159659-1.6229879 3.9288899-1.5390625 5.1874999.0631689-1.072157.3924418-2.370666 1.5390625-4.1874999 1.6224092-2.5702506 5.1349816-4.2469431 7.4765626-4.4414062.73541-.0610745 1.427382-.0441077 2.089844.015625.79698.0700378 1.581851.2082048 2.363281.4023437 3.527699.8527075 6.624471 2.4983011 9.751953 4.4726563 1.619616-.3136321 3.182807-.9286375 4.839844-.9296875.00914-.0000156.018144-.0000156.027344 0 1.648859.0044591 3.201211.619675 4.8125.9335937 3.130035-1.976605 6.229283-3.6231765 9.759765-4.4765625.779139-.1935726 1.561307-.3321003 2.355469-.4023437 1.280231-.1165073 2.842127-.1201296 4.679687.5273437 1.842103.6490745 3.814682 2.1880777 4.894532 3.8984375 1.146062 1.8165209 1.475725 3.1152429 1.539062 4.1874999.083694-1.258731-.015064-2.771947-1.539062-5.1874999-1.07985-1.7103598-3.052429-3.249363-4.894532-3.8984375-1.37817-.485605-2.600633-.6057727-3.666015-.5859375zm6.359375 21.5136719c-.071545.124722-.146468.245003-.216797.371094 1.055428 2.781531 1.802929 5.664808 1.876953 8.654297.003729-.179425.013672-.356858.013672-.53711v-.013672c-.004645-2.926585-.690133-5.746515-1.673828-8.474609zm-48.6484378.001953c-.9831168 2.724544-1.6668348 5.542004-1.6738281 8.464844-.000008.0066-.000008.014884 0 .021484 0 .182872.0098335.362901.0136719.544922.0739194-2.990667.8205052-5.876298 1.8769531-8.658203-.0705829-.126605-.1449931-.247803-.2167969-.373047z" fill="#fff" opacity=".2"/></svg>

<svg xmlns="http://www.w3.org/2000/svg" width="64" height="64" version="1.1" viewBox="0 0 64 64">
 <path style="opacity:0.2" d="m 12.951295,5.0447248 c -2.341581,0.1944631 -5.8533879,1.870701 -7.4757971,4.4409512 -2.0119892,3.188022 -1.5449978,4.808663 -1.4451644,6.339195 0.099834,1.530532 0.4014455,2.902608 0.882722,4.323777 0.7296419,2.154649 1.9327121,3.862784 2.9801636,5.741598 -1.1075856,2.916563 -1.8829038,5.946679 -1.8904314,9.092818 -8e-6,0.0066 -8e-6,0.013 0,0.0196 C 6.0027861,49.26585 17.736939,61.000002 32.000125,61 c 14.263188,2e-6 25.99734,-11.73415 25.997338,-25.997338 v -0.0118 c -0.005,-3.150652 -0.782072,-6.183511 -1.890431,-9.104538 1.047237,-1.877554 2.250324,-3.582381 2.980163,-5.737692 0.481339,-1.421211 0.782914,-2.793214 0.882722,-4.323695 0.09981,-1.530549 0.565846,-3.151791 -1.445164,-6.339263 C 57.444903,7.7753156 55.472825,6.2367125 53.630722,5.587638 51.793162,4.9401647 50.231744,4.9438411 48.951513,5.0603484 48.157351,5.1305918 47.375425,5.2690782 46.596286,5.4626508 43.065804,6.3160368 39.965604,7.96215 36.835568,9.938755 35.224279,9.624836 33.67242,9.009716 32.023561,9.005257 c -0.0092,-1.6e-5 -0.0182,-1.6e-5 -0.02734,0 -1.657037,10e-4 -3.219737,0.61596 -4.839353,0.929592 C 24.029386,7.960494 20.931663,6.3153583 17.403964,5.4626508 16.622534,5.2685119 15.837904,5.1303862 15.040924,5.0603484 14.378462,5.0006157 13.686705,4.9836503 12.951295,5.0447248 Z"/>
 <path style="fill:#fb5140" d="M 12.951295,4.0449976 C 10.609714,4.2394607 7.0979071,5.9156986 5.4754979,8.4859492 3.4635087,11.67397 3.9305001,13.294612 4.0303335,14.825144 c 0.099833,1.530532 0.4014455,2.902608 0.882722,4.323776 0.7296419,2.15465 1.9327121,3.862785 2.9801636,5.741598 -1.1075856,2.916564 -1.8829038,5.946679 -1.8904314,9.092819 -8e-6,0.0066 -8e-6,0.013 0,0.0196 -1.6e-6,14.263187 11.7341513,25.99734 25.9973373,25.997338 14.263188,2e-6 25.99734,-11.734151 25.997338,-25.997338 v -0.01187 c -0.005,-3.150651 -0.782072,-6.18351 -1.890431,-9.104537 1.047237,-1.877554 2.250324,-3.582381 2.980163,-5.737693 0.481339,-1.42121 0.782914,-2.793214 0.882722,-4.323694 0.09981,-1.530481 0.565846,-3.151723 -1.445164,-6.3391948 C 57.444903,6.7755884 55.472825,5.2369853 53.630722,4.5879108 51.793162,3.9404375 50.231744,3.9441139 48.951513,4.0606212 48.157351,4.1308646 47.375425,4.269351 46.596286,4.4629236 43.065804,5.3163096 39.965604,6.9624228 36.835568,8.9390278 35.224279,8.6251091 33.67242,8.0099887 32.023561,8.0055296 c -0.0092,-1.56e-5 -0.0182,-1.56e-5 -0.02734,0 -1.657037,0.00105 -3.219737,0.6159603 -4.839353,0.9295924 C 24.029386,6.9607668 20.931663,5.3156311 17.403964,4.4629236 16.622534,4.2687847 15.837904,4.130659 15.040924,4.0606212 14.378462,4.0008885 13.686705,3.9839231 12.951295,4.0449976 Z"/>
 <path style="opacity:0.2" d="m 13.611383,13.016565 c -0.648668,0.05387 -1.09364,0.29888 -1.370953,0.738205 -0.395298,0.626355 -0.290972,2.230366 0.249974,3.827733 0.537609,1.587573 1.821875,4.095364 3.023128,6.132185 1.984411,-2.887944 4.712615,-5.216441 7.897629,-6.741497 -2.834328,-1.789313 -5.881684,-3.256329 -7.897629,-3.741805 -0.439514,-0.111106 -0.832617,-0.176777 -1.183472,-0.20701 -0.263147,-0.02409 -0.502454,-0.02577 -0.718677,-0.0078 z m 36.777483,0 c -0.216214,-0.01796 -0.455531,-0.01628 -0.718674,0.0078 -0.350782,0.03023 -0.743968,0.0959 -1.183473,0.20701 -2.234659,0.538142 -5.751887,2.257837 -8.823317,4.315957 -1.563201,1.047426 -1.664359,1.184303 -1.663891,2.245863 3.7e-4,0.7587 0.06227,1.010203 0.445266,1.804503 1.060056,2.198251 3.429235,4.444239 5.456473,5.171345 0.899328,0.322741 2.050135,0.312158 2.476309,-0.02344 1.070214,-0.83912 4.214506,-6.452801 5.132286,-9.163125 0.540945,-1.597291 0.645196,-3.201302 0.249975,-3.827733 -0.27737,-0.439321 -0.722308,-0.684331 -1.370954,-0.738201 z M 32.000125,17.004438 A 17.998155,17.998155 0 0 0 14.001968,35.002594 17.998155,17.998155 0 0 0 32.000125,53.000751 17.998155,17.998155 0 0 0 49.998282,35.002594 17.998155,17.998155 0 0 0 48.365637,27.56195 c -0.208746,0.255322 -0.428368,0.501135 -0.749923,0.753829 -0.893334,0.703428 -1.584058,0.68123 -2.281016,0.68743 -0.696959,0.0062 -1.398055,-0.09633 -2.10916,-0.351526 -2.793096,-1.001796 -5.246435,-3.418622 -6.581356,-6.186867 -0.418499,-0.867951 -0.644044,-1.806201 -0.644466,-2.671602 -2.46e-4,-0.560495 0.08732,-1.447712 0.562442,-2.179464 a 17.998155,17.998155 0 0 0 -4.562033,-0.609312 z"/>
 <path style="fill:#ffffff" d="m 13.611383,12.016838 c -0.648668,0.05387 -1.09364,0.29888 -1.370953,0.738205 -0.395298,0.626355 -0.290972,2.230366 0.249974,3.827733 0.537609,1.587572 1.821875,4.095364 3.023128,6.132185 1.984411,-2.887945 4.712615,-5.216442 7.897629,-6.741497 -2.834328,-1.789314 -5.881684,-3.256329 -7.897629,-3.741805 -0.439514,-0.111106 -0.832617,-0.176777 -1.183472,-0.20701 -0.263147,-0.02409 -0.502454,-0.02577 -0.718677,-0.0078 z m 36.777483,0 c -0.216214,-0.01796 -0.455531,-0.01628 -0.718674,0.0078 -0.350782,0.03023 -0.743968,0.0959 -1.183473,0.20701 -2.234659,0.538142 -5.751887,2.257837 -8.823317,4.315957 -1.563201,1.047426 -1.664359,1.184303 -1.663891,2.245863 3.7e-4,0.758701 0.06227,1.010203 0.445266,1.804503 1.060056,2.198251 3.429235,4.444239 5.456473,5.171344 0.899328,0.322741 2.050135,0.312158 2.476309,-0.02344 1.070214,-0.83912 4.214506,-6.452801 5.132286,-9.163125 0.540945,-1.597287 0.645196,-3.201299 0.249975,-3.827729 -0.27737,-0.439325 -0.722308,-0.684335 -1.370954,-0.738205 z M 32.000125,16.00471 A 17.998155,17.998155 0 0 0 14.001968,34.002867 17.998155,17.998155 0 0 0 32.000125,52.001024 17.998155,17.998155 0 0 0 49.998282,34.002867 17.998155,17.998155 0 0 0 48.365637,26.562223 c -0.208746,0.255322 -0.428368,0.501135 -0.749923,0.753829 -0.893334,0.703428 -1.584058,0.68123 -2.281016,0.68743 -0.696959,0.0062 -1.398055,-0.09634 -2.10916,-0.351526 -2.793096,-1.001796 -5.246435,-3.418622 -6.581356,-6.186867 -0.418499,-0.867951 -0.644044,-1.806201 -0.644466,-2.671602 -2.46e-4,-0.560495 0.08732,-1.447712 0.562442,-2.179464 A 17.998155,17.998155 0 0 0 32.000125,16.00471 Z"/>
 <path style="opacity:0.2;fill:#ffffff" d="M 49.964844 4.0019531 C 49.609716 4.0085649 49.27123 4.0314201 48.951172 4.0605469 C 48.15701 4.1307903 47.374842 4.269318 46.595703 4.4628906 C 43.065221 5.3162766 39.965973 6.9628481 36.835938 8.9394531 C 35.224649 8.6255344 33.672297 8.0103185 32.023438 8.0058594 C 32.014238 8.0058438 32.005234 8.0058438 31.996094 8.0058594 C 30.339057 8.0069094 28.775866 8.6219148 27.15625 8.9355469 C 24.028768 6.9611917 20.931996 5.3155981 17.404297 4.4628906 C 16.622867 4.2687517 15.837996 4.1305847 15.041016 4.0605469 C 14.378554 4.0008142 13.686582 3.9838474 12.951172 4.0449219 C 10.609591 4.239385 7.0970186 5.9160775 5.4746094 8.4863281 C 3.9498708 10.902294 3.8516215 12.415218 3.9355469 13.673828 C 3.9987158 12.601671 4.3279887 11.303162 5.4746094 9.4863281 C 7.0970186 6.9160775 10.609591 5.239385 12.951172 5.0449219 C 13.686582 4.9838474 14.378554 5.0008142 15.041016 5.0605469 C 15.837996 5.1305847 16.622867 5.2687517 17.404297 5.4628906 C 20.931996 6.3155981 24.028768 7.9611917 27.15625 9.9355469 C 28.775866 9.6219148 30.339057 9.0069094 31.996094 9.0058594 C 32.005234 9.0058438 32.014238 9.0058438 32.023438 9.0058594 C 33.672297 9.0103185 35.224649 9.6255344 36.835938 9.9394531 C 39.965973 7.9628481 43.065221 6.3162766 46.595703 5.4628906 C 47.374842 5.269318 48.15701 5.1307903 48.951172 5.0605469 C 50.231403 4.9440396 51.793299 4.9404173 53.630859 5.5878906 C 55.472962 6.2369651 57.445541 7.7759683 58.525391 9.4863281 C 59.671453 11.302849 60.001116 12.601571 60.064453 13.673828 C 60.148147 12.415097 60.049389 10.901881 58.525391 8.4863281 C 57.445541 6.7759683 55.472962 5.2369651 53.630859 4.5878906 C 52.252689 4.1022856 51.030226 3.9821179 49.964844 4.0019531 z M 56.324219 25.515625 C 56.252674 25.640347 56.177751 25.760628 56.107422 25.886719 C 57.16285 28.66825 57.910351 31.551527 57.984375 34.541016 C 57.988104 34.361591 57.998047 34.184158 57.998047 34.003906 L 57.998047 33.990234 C 57.993402 31.063649 57.307914 28.243719 56.324219 25.515625 z M 7.6757812 25.517578 C 6.6926644 28.242122 6.0089464 31.059582 6.0019531 33.982422 C 6.0019451 33.989022 6.0019451 33.997306 6.0019531 34.003906 C 6.0019531 34.186778 6.0117866 34.366807 6.015625 34.548828 C 6.0895444 31.558161 6.8361302 28.67253 7.8925781 25.890625 C 7.8219952 25.76402 7.747585 25.642822 7.6757812 25.517578 z"/>
</svg>
